Simply-Orange-Circles/scalable/apps/org.gnome.Cheese.svg

<?xml version="1.0" encoding="UTF-8" standalone="no"?>
<svg
   xmlns:dc="http://purl.org/dc/elements/1.1/"
   xmlns:cc="http://creativecommons.org/ns#"
   xmlns:rdf="http://www.w3.org/1999/02/22-rdf-syntax-ns#"
   xmlns:svg="http://www.w3.org/2000/svg"
   xmlns="http://www.w3.org/2000/svg"
   xmlns:sodipodi="http://sodipodi.sourceforge.net/DTD/sodipodi-0.dtd"
   xmlns:inkscape="http://www.inkscape.org/namespaces/inkscape"
   width="48"
   height="48"
   viewBox="0 0 12.7 12.7"
   version="1.1"
   id="svg8"
   sodipodi:docname="org.gnome.Cheese.svg"
   inkscape:version="0.92.4 (5da689c313, 2019-01-14)">
  <metadata
     id="metadata14">
    <rdf:RDF>
      <cc:Work
         rdf:about="">
        <dc:format>image/svg+xml</dc:format>
        <dc:type
           rdf:resource="http://purl.org/dc/dcmitype/StillImage" />
        <dc:title></dc:title>
      </cc:Work>
    </rdf:RDF>
  </metadata>
  <defs
     id="defs12" />
  <sodipodi:namedview
     pagecolor="#ffffff"
     bordercolor="#666666"
     borderopacity="1"
     objecttolerance="10"
     gridtolerance="10"
     guidetolerance="10"
     inkscape:pageopacity="0"
     inkscape:pageshadow="2"
     inkscape:window-width="1087"
     inkscape:window-height="480"
     id="namedview10"
     showgrid="false"
     inkscape:zoom="4.9166667"
     inkscape:cx="2.1355932"
     inkscape:cy="24"
     inkscape:window-x="0"
     inkscape:window-y="25"
     inkscape:window-maximized="0"
     inkscape:current-layer="svg8" />
  <g
     id="g6"
     style="fill:#ff7f2a">
    <path
       d="m 6.344,0.073 a 6.29,6.29 0 0 0 -6.29,6.29 6.29,6.29 0 0 0 6.29,6.289 6.29,6.29 0 0 0 6.29,-6.29 6.29,6.29 0 0 0 -6.29,-6.29 z M 6.326,1.009 A 5.407,5.407 0 0 1 11.733,6.416 5.407,5.407 0 0 1 6.326,11.823 5.407,5.407 0 0 1 0.92,6.416 5.407,5.407 0 0 1 6.326,1.01 Z"
       id="path2"
       inkscape:connector-curvature="0" />
    <path
       d="m 6.353,1.836 a 3.775,3.775 0 0 0 -1.017,7.41 1.88,1.68 0 0 0 -0.882,1.446 l 3.76,-0.024 A 1.88,1.68 0 0 0 7.345,9.253 3.774,3.774 0 0 0 6.353,1.836 Z m 0,2.076 a 1.7,1.7 0 1 1 0,3.4 1.7,1.7 0 0 1 0,-3.4 z m 0,1.322 A 0.379,0.379 0 0 0 5.975,5.612 C 5.975,5.82 6.145,5.99 6.353,5.99 6.56,5.99 6.73,5.82 6.73,5.612 A 0.379,0.379 0 0 0 6.353,5.234 Z"
       id="path4"
       inkscape:connector-curvature="0" />
  </g>
</svg>

<svg xmlns="http://www.w3.org/2000/svg" width="48" height="48" viewBox="0 0 12.7 12.7"><g fill="#ff7f2a"><path d="M6.34.07a6.29 6.29 0 0 0-6.29 6.3 6.29 6.29 0 0 0 6.3 6.28 6.29 6.29 0 0 0 6.28-6.29A6.29 6.29 0 0 0 6.34.07zm-.01.94a5.4 5.4 0 0 1 5.4 5.4 5.4 5.4 0 0 1-5.4 5.41 5.4 5.4 0 0 1-5.41-5.4A5.4 5.4 0 0 1 6.32 1z"/><path d="M6.35 1.84a3.77 3.77 0 0 0-1.01 7.4 1.88 1.68 0 0 0-.89 1.45l3.76-.02a1.88 1.68 0 0 0-.87-1.42 3.77 3.77 0 0 0-.99-7.41zm0 2.07a1.7 1.7 0 1 1 0 3.4 1.7 1.7 0 0 1 0-3.4zm0 1.32a.38.38 0 0 0-.37.38c0 .21.16.38.37.38s.38-.17.38-.38a.38.38 0 0 0-.38-.38z"/></g></svg>
